!!!OTL: Werder als Musikant.
!!!OTL-incipit: DER GENRAL WERDER HAT EINMAL
!!!COM: Im Volkston
!!!ARE: Europa, Mitteleuropa, Deutschland
!!!SCT: F0677
!!!TXL: @@DE
!!!YEM: Copyright 1995, estate of Helmut Schaffrath.
**kern	**text
*ICvox	*
*M2/4	*
*k[b-e-]	*
*B-:	*
!LO:TX:a:t=Munter.	!
!LO:TX:a:t=Zweistimmig.	!
{8f	1._Der
=1	=1
8b-/	Gen'-
8b-/	-ral
8b-/	Wer-
8dd/	-der
=2	=2
8f	hat
8f	ein-
8f}	mal
{8f	ʒum
=3	=3
8b-/	Tan-
8b-/	-ʒe
8a	auf-
8b-/	-ge-
=4	=4
4cc/	-ſpielt,
8r}	.
{8cc/	das
=5	=5
8ee-/	war
8dd/	ʒur
8cc/	Ʒeit
8b-/	als
=6	=6
8a	ſei-
8cc/	-nen
8f}	Strauß
{8b-/	er
=7	=7
8a	in
8a	dem
8g	El-
8a	-ſaß
=8	=8
4b-/	hielt.
8r}	.
{8cc/	Da
=9	=9
4cc/	ſtrich,
8r	.
8cc/	da
=10	=10
4cc/	ſtrich,
8r}	.
{8cc/	da
=11	=11
8cc/	ſtrich
8b-/	den
8a	gro-
8g	-ßen
=12	=12
8a	Brummbaß
8cc/	.
8f}	er,
{8cc/	ſo
=13	=13
4cc/	grob,
8r	.
8cc/	ſo
=14	=14
4cc/	grob,
8r}	.
{8cc/	ſo
=15	=15
8cc/	grob
8b-/	wie'n
8a	Kei-
8g	-ner
=16	=16
4f	ſtreicht.
8r}	.
{8f	Die
=17	=17
8b-/	Franʒen
8b-/	.
8b-/	walʒ-
8dd/	-ten
=18	=18
8f	hin
8f	und
8f}	her,
{8f	wie
=19	=19
8b-/	Wer-
8b-/	-der
8a	hat
8b-/	ge-
=20	=20
4cc/	-ʒeigt,
8r}	.
{8cc/	die
=21	=21
8ee-/	Fran-
8dd/	-ʒen
8cc/	walʒ-
8b-/	-ten
=22	=22
8a	hin
8cc/	und
8f}	her,
{8b-/	wie
=23	=23
8a	Wer-
8a	-der
8g	hat
8a	ge-
=24	=24
4b-/	-ʒeigt.
8r}	.
{8f	Der
=25	=25
4b-/	Wer-
4dd/	-der
=26	=26
4.ff/}	war
{8dd/	ein
=27	=27
4cc/	Mu-
4dd/	-ſi-
=28	=28
4b-/	-kant,
8r}	.
{8f	wie
=29	=29
4b-/	grö-
4dd/	-ßer
=30	=30
4.ff}	kei-
{8dd	-ner
=31	=31
4cc/	wird
4dd/	ge-
=32	=32
4b-/	-nannt.
8r}	.
==	==
!!!AGN: Soldaten - Lied, Spott, national
!!!ONB: ESAC (Essen Associative Code) Database: FINK
!!!AMT: simple duple
!!!AIN: vox
!!!EED: Helmut Schaffrath
!!!EEV: 1.0
!!!GTL: Soldaten- und Jaegerlieder
!!Text: Volkslied
!!!source: Musikalischer Hausschatz der Deutschen. Eine Sammlung von über 1000 Liedern und Gesängen mit Singstimmen und Klavierbegleitung. Leipzig, Litterarisches Verlags-Haus.
!!!page: 451
!!!ENC: Anna Maria Matuszewska
!!!EEV: 2025/03/18
*-	*-
